X: 16297
T: Grinders, The
R: slip jig
M: 9/8
K: Gmajor
|:d|g2 g edB d2 B|gfg edc A2 d|g2 g edB d2 B|A>BA AB/c/d e2:|
|:g|A2 A ABA G2 E|A>BA AB/c/d edB|A2 A ABA G2 B|A>BA AB/c/d e2:|
|:d|gag e2 B d2 B|~g3 edc ~A3|g2 g edB edB|ABA A2 d e2:|
|:g|~A3 Ac/B/A G2 e|A2 A ABd e2 g|ABA ABE G2 B|A2 A ABd e2:|

